X:1
T:Title
%%score 1 { 2 | 3 }
L:1/8
Q:1/4=103
M:4/4
K:A
V:1 treble nm="Grand Piano, Soprano"
V:2 bass nm="Choir Pad, Bonham, J. H. Rosecrans"
V:3 bass 
V:1
 [CE]3 [CE] [CE][CE][DF][CE] | [CE] [CA]3- [CA]/ z/ z z2 | [EB]3 [EB] [EB][EB][Ec][Ec] | [EB]6 z2 | %4
w: By~James~Holmes~Rosecrans,~1882 * * * * *||||
 [Ec]3 [Ec] [Ec][Ec][Ec][DB] | [CA] [DF]3- [DF]/ z/ z z2 | [CE]3 [CE] [DE][DE][DF][EG] | [EA]6 z2 | %8
w: ||||
 [Ec]3 [Ec] [Ec][Ec][Ec][Ec] | [Fd] [Fd]3- [Fd]/ z/ z z2 | [Ec]3 [Ec] [Ec][Ec][Ee][Ee] | [EB]6 z2 | %12
w: ||||
 [EB]3 [Ec] [Ed][EG][EA][EB] | [Ec] [Ec]3- [Ec]/ z/ z z2 | [DF]3 [FB] [EA]E[EF][EG] | [EA]8 |] %16
w: ||||
V:2
 A,3 A, A,A,A,A, | A, E,3- E,/ z/ z z2 | G,3 G, G,G,A,A, | G,6 z2 | A,3 A, A,A,A,G, | %5
 A, A,3- A,/ z/ z z2 | A,3 A, B,B,B,D | C6 z2 | A,3 A, A,A,A,A, | A, A,3- A,/ z/ z z2 | %10
 A,3 A, A,A,A,A, | G,6 z2 | G,3 A, B,DCB, | A, A,3- A,/ z/ z z2 | A,3 D CCB,D | C8 |] %16
V:3
 A,,3 A,, A,,A,,A,,A,, | A,, A,,3- A,,/ z/ z z2 | E,3 E, E,E, z2 | E,6 z2 | z4 z2 z E, | %5
 F, D,3- D,/ z/ z z2 | E,3 E, E,E,E,E, | A,,6 z2 | z8 | D, D,3- D,/ z/ z z2 | z4 z2 C,C, | E,6 z2 | %12
 E,3 E, E,E,F,G, | z8 | D,3 D, E,E,E,E, | A,,8 |] %16

